ui-icons/icons/speed-16.svg

<?xml version="1.0" encoding="UTF-8"?>
<svg width="16px" height="16px" viewBox="0 0 16 16" version="1.1" xmlns="http://www.w3.org/2000/svg" xmlns:xlink="http://www.w3.org/1999/xlink">
    <title>icon/16/speed-16</title>
    <g id="icon/16/speed-16" stroke="none" stroke-width="1" fill="none" fill-rule="evenodd">
        <path d="M8,0 C12.418278,0 16,3.581722 16,8 C16,13.418278 14.418278,15 8,15 C1.581722,15 0,13.418278 0,8 C0,3.581722 3.581722,0 8,0 Z M8,1.5 C4.41014913,1.5 1.5,4.41014913 1.5,8 C1.5,12.633285 2.46771046,13.5 8,13.5 C13.5322895,13.5 14.5,12.633285 14.5,8 C14.5,4.41014913 11.5898509,1.5 8,1.5 Z M4.94880276,5.72155122 L7.47300928,7.83961199 C8.01918741,7.64587673 8.62811061,7.78432418 9.0368288,8.19516885 C9.44554698,8.60601351 9.58083269,9.21564696 9.38426577,9.76081239 C9.18769885,10.3059778 8.69449695,10.6890014 8.11763846,10.7444828 C7.65307698,10.7843208 7.19633392,10.6062958 6.88126937,10.2625826 C6.56620483,9.91886939 6.42850228,9.4483961 6.50851895,8.98904681 L3.98422527,6.86998985 C3.77367024,6.69929317 3.67160158,6.4282693 3.71724917,6.1610857 C3.76289676,5.89390211 3.94915684,5.67213841 4.20444072,5.58102905 C4.4597246,5.48991968 4.74430451,5.54364326 4.94880276,5.72155122 Z M3.5,7 C3.91421356,7 4.25,7.33578644 4.25,7.75 C4.25,8.16421356 3.91421356,8.5 3.5,8.5 C3.08578644,8.5 2.75,8.16421356 2.75,7.75 C2.75,7.33578644 3.08578644,7 3.5,7 Z M12.5,7 C12.9142136,7 13.25,7.33578644 13.25,7.75 C13.25,8.16421356 12.9142136,8.5 12.5,8.5 C12.0857864,8.5 11.75,8.16421356 11.75,7.75 C11.75,7.33578644 12.0857864,7 12.5,7 Z M5,4 C5.41421356,4 5.75,4.33578644 5.75,4.75 C5.75,5.16421356 5.41421356,5.5 5,5.5 C4.58578644,5.5 4.25,5.16421356 4.25,4.75 C4.25,4.33578644 4.58578644,4 5,4 Z M11,4 C11.4142136,4 11.75,4.33578644 11.75,4.75 C11.75,5.16421356 11.4142136,5.5 11,5.5 C10.5857864,5.5 10.25,5.16421356 10.25,4.75 C10.25,4.33578644 10.5857864,4 11,4 Z M8,3 C8.41421356,3 8.75,3.33578644 8.75,3.75 C8.75,4.16421356 8.41421356,4.5 8,4.5 C7.58578644,4.5 7.25,4.16421356 7.25,3.75 C7.25,3.33578644 7.58578644,3 8,3 Z" id="Combined-Shape" fill="#000000" fill-rule="nonzero"></path>
    </g>
</svg>

<svg xmlns="http://www.w3.org/2000/svg" width="16" height="16" viewBox="0 0 16 16"><path d="M8 0a8 8 0 0 1 8 8c0 5.418-1.582 7-8 7s-8-1.582-8-7a8 8 0 0 1 8-8m0 1.5A6.5 6.5 0 0 0 1.5 8c0 4.633.968 5.5 6.5 5.5s6.5-.867 6.5-5.5A6.5 6.5 0 0 0 8 1.5M4.949 5.722 7.473 7.84a1.499 1.499 0 1 1 .645 2.904 1.503 1.503 0 0 1-1.61-1.755L3.985 6.87a.75.75 0 1 1 .965-1.148M3.5 7a.75.75 0 1 1 0 1.5.75.75 0 0 1 0-1.5m9 0a.75.75 0 1 1 0 1.5.75.75 0 0 1 0-1.5M5 4a.75.75 0 1 1 0 1.5A.75.75 0 0 1 5 4m6 0a.75.75 0 1 1 0 1.5.75.75 0 0 1 0-1.5M8 3a.75.75 0 1 1 0 1.5A.75.75 0 0 1 8 3"/></svg>
